svgs/thin/building.svg

<svg xmlns="http://www.w3.org/2000/svg" viewBox="0 0 384 512"><!--! Font Awesome Pro 6.6.0 by @fontawesome - https://fontawesome.com License - https://fontawesome.com/license (Commercial License) Copyright 2024 Fonticons, Inc. --><path d="M48 16C30.3 16 16 30.3 16 48l0 416c0 17.7 14.3 32 32 32l96 0 0-80c0-26.5 21.5-48 48-48s48 21.5 48 48l0 80 96 0c17.7 0 32-14.3 32-32l0-416c0-17.7-14.3-32-32-32L48 16zM160 496l64 0 0-80c0-17.7-14.3-32-32-32s-32 14.3-32 32l0 80zm-16 16l-96 0c-26.5 0-48-21.5-48-48L0 48C0 21.5 21.5 0 48 0L336 0c26.5 0 48 21.5 48 48l0 416c0 26.5-21.5 48-48 48l-96 0-16 0-64 0-16 0zM104 232l32 0c13.3 0 24 10.7 24 24l0 32c0 13.3-10.7 24-24 24l-32 0c-13.3 0-24-10.7-24-24l0-32c0-13.3 10.7-24 24-24zm-8 24l0 32c0 4.4 3.6 8 8 8l32 0c4.4 0 8-3.6 8-8l0-32c0-4.4-3.6-8-8-8l-32 0c-4.4 0-8 3.6-8 8zm128 0c0-13.3 10.7-24 24-24l32 0c13.3 0 24 10.7 24 24l0 32c0 13.3-10.7 24-24 24l-32 0c-13.3 0-24-10.7-24-24l0-32zm24-8c-4.4 0-8 3.6-8 8l0 32c0 4.4 3.6 8 8 8l32 0c4.4 0 8-3.6 8-8l0-32c0-4.4-3.6-8-8-8l-32 0zM104 104l32 0c13.3 0 24 10.7 24 24l0 32c0 13.3-10.7 24-24 24l-32 0c-13.3 0-24-10.7-24-24l0-32c0-13.3 10.7-24 24-24zm-8 24l0 32c0 4.4 3.6 8 8 8l32 0c4.4 0 8-3.6 8-8l0-32c0-4.4-3.6-8-8-8l-32 0c-4.4 0-8 3.6-8 8zm128 0c0-13.3 10.7-24 24-24l32 0c13.3 0 24 10.7 24 24l0 32c0 13.3-10.7 24-24 24l-32 0c-13.3 0-24-10.7-24-24l0-32zm24-8c-4.4 0-8 3.6-8 8l0 32c0 4.4 3.6 8 8 8l32 0c4.4 0 8-3.6 8-8l0-32c0-4.4-3.6-8-8-8l-32 0z"/></svg>

<svg xmlns="http://www.w3.org/2000/svg" viewBox="0 0 384 512"><!--! Font Awesome Pro 6.5.2 by @fontawesome - https://fontawesome.com License - https://fontawesome.com/license (Commercial License) Copyright 2024 Fonticons, Inc. --><path d="M48 16C30.3 16 16 30.3 16 48V464c0 17.7 14.3 32 32 32h96V416c0-26.5 21.5-48 48-48s48 21.5 48 48v80h96c17.7 0 32-14.3 32-32V48c0-17.7-14.3-32-32-32H48zM160 496h64V416c0-17.7-14.3-32-32-32s-32 14.3-32 32v80zm-16 16H48c-26.5 0-48-21.5-48-48V48C0 21.5 21.5 0 48 0H336c26.5 0 48 21.5 48 48V464c0 26.5-21.5 48-48 48H240 224 160 144zM104 232h32c13.3 0 24 10.7 24 24v32c0 13.3-10.7 24-24 24H104c-13.3 0-24-10.7-24-24V256c0-13.3 10.7-24 24-24zm-8 24v32c0 4.4 3.6 8 8 8h32c4.4 0 8-3.6 8-8V256c0-4.4-3.6-8-8-8H104c-4.4 0-8 3.6-8 8zm128 0c0-13.3 10.7-24 24-24h32c13.3 0 24 10.7 24 24v32c0 13.3-10.7 24-24 24H248c-13.3 0-24-10.7-24-24V256zm24-8c-4.4 0-8 3.6-8 8v32c0 4.4 3.6 8 8 8h32c4.4 0 8-3.6 8-8V256c0-4.4-3.6-8-8-8H248zM104 104h32c13.3 0 24 10.7 24 24v32c0 13.3-10.7 24-24 24H104c-13.3 0-24-10.7-24-24V128c0-13.3 10.7-24 24-24zm-8 24v32c0 4.4 3.6 8 8 8h32c4.4 0 8-3.6 8-8V128c0-4.4-3.6-8-8-8H104c-4.4 0-8 3.6-8 8zm128 0c0-13.3 10.7-24 24-24h32c13.3 0 24 10.7 24 24v32c0 13.3-10.7 24-24 24H248c-13.3 0-24-10.7-24-24V128zm24-8c-4.4 0-8 3.6-8 8v32c0 4.4 3.6 8 8 8h32c4.4 0 8-3.6 8-8V128c0-4.4-3.6-8-8-8H248z"/></svg>
